X:136
T:score219
L:1/8
Q:1/4=96
M:4/4
I:linebreak $
K:Amin
!p! (B,2 | C4 D4 | E3 D!mf! C2) (G2 | c4 d4 |$ e3 d c2)!f! e2 | (e2 d3 e c2 | B3 A ^GABc) |$ %7
 BA A4 ^G2 | A8 |] %9
